assets/images/Star.svg

<svg fill="none" height="30" viewBox="0 0 30 30" width="30" xmlns="http://www.w3.org/2000/svg"><path clip-rule="evenodd" d="m13.1079 5.14236c.843-1.45284 2.9411-1.45283 3.7841 0l2.5817 4.4492c.2379.41014.6493.68994 1.1181.76074l4.287.6475c1.8688.2823 2.5243 2.6418 1.0689 3.8475l-3.1236 2.5879c-.4384.3632-.6446.9362-.5381 1.4955l.875 4.595c.3428 1.7999-1.5468 3.1984-3.168 2.3447l-4.2651-2.2457c-.4556-.2399-1.0003-.2399-1.4559 0l-4.2651 2.2457c-1.62124.8537-3.51077-.5448-3.16803-2.3447l.87498-4.595c.1065-.5593-.09965-1.1323-.53807-1.4955l-3.12363-2.5879c-1.45536-1.2057-.79985-3.5652 1.06889-3.8475l4.28706-.6475c.46883-.0708.8801-.3506 1.1181-.76074zm2.1623.94104c-.1204-.20755-.4201-.20755-.5405-.00001l-2.5817 4.44921c-.5236.9022-1.4285 1.5179-2.45988 1.6737l-4.28706.6475c-.26696.0403-.3606.3774-.1527.5497l3.12363 2.5878c.96454.7992 1.41807 2.0597 1.18376 3.2901l-.87497 4.595c-.04897.2571.22096.4569.45258.335l4.26504-2.2458c1.0025-.5278 2.2006-.5278 3.2031 0l4.265 2.2458c.2316.1219.5016-.0779.4526-.335l-.875-4.595c-.2343-1.2304.2193-2.4909 1.1838-3.29l3.1236-2.5879c.2079-.1723.1143-.5094-.1527-.5497l-4.287-.6475c-1.0315-.1558-1.9363-.7715-2.4599-1.6737z" fill="#fff" fill-rule="evenodd"/></svg>

<svg width="30" height="30" viewBox="0 0 30 30" fill="none" xmlns="http://www.w3.org/2000/svg">
<path fill-rule="evenodd" clip-rule="evenodd" d="M13.1079 5.14236C13.9509 3.68952 16.049 3.68953 16.892 5.14236L19.4737 9.59156C19.7116 10.0017 20.123 10.2815 20.5918 10.3523L24.8788 10.9998C26.7476 11.2821 27.4031 13.6416 25.9477 14.8473L22.8241 17.4352C22.3857 17.7984 22.1795 18.3714 22.286 18.9307L23.161 23.5257C23.5038 25.3256 21.6142 26.7241 19.993 25.8704L15.7279 23.6247C15.2723 23.3848 14.7276 23.3848 14.272 23.6247L10.0069 25.8704C8.38566 26.7241 6.49613 25.3256 6.83887 23.5257L7.71385 18.9307C7.82035 18.3714 7.6142 17.7984 7.17578 17.4352L4.05215 14.8473C2.59679 13.6416 3.2523 11.2821 5.12104 10.9998L9.4081 10.3523C9.87693 10.2815 10.2882 10.0017 10.5262 9.59156L13.1079 5.14236ZM15.2702 6.0834C15.1498 5.87585 14.8501 5.87585 14.7297 6.08339L12.148 10.5326C11.6244 11.4348 10.7195 12.0505 9.68812 12.2063L5.40106 12.8538C5.1341 12.8941 5.04046 13.2312 5.24836 13.4035L8.37199 15.9913C9.33653 16.7905 9.79006 18.051 9.55575 19.2814L8.68078 23.8764C8.63181 24.1335 8.90174 24.3333 9.13336 24.2114L13.3984 21.9656C14.4009 21.4378 15.599 21.4378 16.6015 21.9656L20.8665 24.2114C21.0981 24.3333 21.3681 24.1335 21.3191 23.8764L20.4441 19.2814C20.2098 18.051 20.6634 16.7905 21.6279 15.9914L24.7515 13.4035C24.9594 13.2312 24.8658 12.8941 24.5988 12.8538L20.3118 12.2063C19.2803 12.0505 18.3755 11.4348 17.8519 10.5326L15.2702 6.0834Z" fill="white"/>
</svg>
